X:459
T: Wo ist Jesus meine Liebe (5-55), S. 92
N: P0729
O: Lothringen
S: MERKELBACH-PINCK, Angelika: Verklingende Weisen, Bd 5, Kassel 1962]
R: geistliches, religises Lied]
M: 3/8
L: 1/8
K: C
G2G2 | EGG2EGcc | c2A2z2
AA | G2BBB2AB | c4
G2G2 | EGG2EGcc | c2A2z2
AA | G2BBB2AB | c4
E2D | D_BB | dcA | G2G2
E2D | D^FA | dcA | G4
G3F | EDC2G2G2 | EGG2EGcc | c2A2z2
AA | G2BBB2AB | c4

@@@ Tune index: 8009
